X: 38583
T: Stone Frigate, The
R: reel
M: 4/4
K: Dmajor
|:dB|"D"AddA d2(Ad)|"D7"AddG "G"B2(dB)|"D"AddA "Bm"dABd|"Em"feef "A7"e2dB|
"D"AddA d2Ad|"D7"AddG "G"B2dB|"D"AddA "Em"Beed|"A7"caac "D"d2:|
dg|"D"faaf a2fa|"D7"aAdG "G"B2dB|"D"AddA "Bm"dABd|"Em"feef "A7"e2eg|
"D"faaf a2fa|"D7"aAdG "G"B2dB|"D"AddA "Em"Beed|"A7"caac "D"d2 dg||
"D"faaf a2fa|"D7"aAdG "G"B2dB|"D"AddA "Bm"dABd|"Em"feef "A7"e2dB|
"D"AddA d2Ad|"D7"AddG "G"B2dB|"D"AddA "Em"Beed|"A7"caac "D"d2||

